X:26
T:Father O'Flynn Harmony
T:Top of Cork Road
R:jig
M: 6/8
L: 1/8
K:D
"D"fcA FAd | "G"fef "A"edc | "D"fef "A"gab | "D"agf "A7"edc|
"D"fdA FAd | "G"dgf "A"edc | "D"fef "A7"gag | "D"aff f3 :|
|: "D"aba a3 | "A"geA Aeg | "Bm"f3 "E7"e3 | "A7"ecc c3 |
"G"ded def | "D"dAF FAd | "G"fef "A7"gfg | "D"aff f3 :|
